flaticon/emoticons/desperate.svg

<svg xmlns="http://www.w3.org/2000/svg" width="32" height="32" viewBox="0 0 24 24">
    <path d="M 23.917969 10.625 C 23.757812 9.949219 23.371094 9.363281 22.886719 9.066406 C 22.5625 8.867188 22.214844 8.800781 21.882812 8.882812 C 21.808594 8.898438 21.734375 8.925781 21.664062 8.960938 C 20.730469 6.6875 19.273438 5.214844 17.773438 4.265625 L 18.316406 3.179688 C 18.417969 2.980469 18.335938 2.742188 18.140625 2.640625 C 17.941406 2.542969 17.699219 2.625 17.601562 2.820312 L 17.082031 3.863281 C 16.832031 3.730469 16.589844 3.613281 16.347656 3.503906 L 16.738281 2.324219 C 16.808594 2.117188 16.695312 1.890625 16.488281 1.820312 C 16.277344 1.75 16.050781 1.863281 15.980469 2.074219 L 15.601562 3.210938 C 15.324219 3.109375 15.054688 3.027344 14.796875 2.953125 L 15.140625 1.925781 C 15.210938 1.714844 15.097656 1.488281 14.886719 1.417969 C 14.675781 1.347656 14.449219 1.460938 14.382812 1.671875 L 14.019531 2.761719 C 13.511719 2.65625 13.078125 2.597656 12.757812 2.566406 L 12.757812 1.800781 C 12.757812 1.578125 12.582031 1.398438 12.359375 1.398438 C 12.136719 1.398438 11.960938 1.578125 11.960938 1.800781 L 11.960938 2.539062 C 11.75 2.550781 11.382812 2.582031 10.90625 2.65625 L 10.753906 1.734375 C 10.71875 1.515625 10.511719 1.367188 10.292969 1.40625 C 10.074219 1.441406 9.929688 1.648438 9.964844 1.867188 L 10.121094 2.808594 C 9.695312 2.902344 9.21875 3.035156 8.71875 3.214844 L 8.339844 2.074219 C 8.269531 1.863281 8.042969 1.75 7.832031 1.820312 C 7.625 1.890625 7.511719 2.117188 7.578125 2.328125 L 7.976562 3.511719 C 7.628906 3.660156 7.277344 3.835938 6.925781 4.039062 L 6.316406 2.820312 C 6.21875 2.625 5.976562 2.542969 5.78125 2.640625 C 5.582031 2.742188 5.503906 2.980469 5.601562 3.179688 L 6.246094 4.464844 C 5.890625 4.703125 5.546875 4.976562 5.207031 5.28125 L 4.242188 4.316406 C 4.085938 4.160156 3.832031 4.160156 3.675781 4.316406 C 3.519531 4.472656 3.519531 4.726562 3.675781 4.882812 L 4.632812 5.839844 C 3.402344 7.148438 2.375 8.972656 1.902344 11.523438 C 1.894531 11.554688 1.890625 11.589844 1.886719 11.621094 C 1.785156 11.59375 1.679688 11.574219 1.574219 11.574219 C 0.691406 11.574219 0 12.527344 0 13.746094 C 0 14.960938 0.691406 15.914062 1.574219 15.914062 C 1.738281 15.914062 1.894531 15.875 2.046875 15.808594 C 2.328125 16.875 2.792969 17.878906 3.429688 18.757812 C 4.707031 20.519531 7.21875 22.601562 11.9375 22.601562 C 12.011719 22.601562 12.082031 22.601562 12.15625 22.597656 C 12.230469 22.601562 12.304688 22.601562 12.375 22.601562 C 17.09375 22.601562 19.605469 20.519531 20.882812 18.757812 C 22.035156 17.171875 22.621094 15.179688 22.574219 13.128906 C 22.589844 13.128906 22.601562 13.132812 22.617188 13.132812 C 22.707031 13.132812 22.796875 13.125 22.886719 13.101562 C 23.742188 12.898438 24.199219 11.808594 23.917969 10.625 Z M 1.871094 14.996094 C 1.789062 15.0625 1.6875 15.113281 1.574219 15.113281 C 1.207031 15.113281 0.800781 14.550781 0.800781 13.746094 C 0.800781 12.9375 1.207031 12.375 1.574219 12.375 C 1.640625 12.375 1.710938 12.394531 1.777344 12.429688 C 1.757812 12.644531 1.746094 12.855469 1.738281 13.070312 C 1.738281 13.082031 1.738281 13.097656 1.738281 13.109375 C 1.734375 13.289062 1.734375 13.464844 1.738281 13.640625 C 1.742188 13.695312 1.742188 13.75 1.746094 13.804688 C 1.753906 13.949219 1.761719 14.09375 1.777344 14.234375 C 1.78125 14.292969 1.785156 14.347656 1.789062 14.40625 C 1.808594 14.578125 1.832031 14.753906 1.859375 14.925781 C 1.863281 14.949219 1.867188 14.972656 1.871094 14.996094 Z M 20.234375 18.289062 C 18.507812 20.667969 15.796875 21.851562 12.160156 21.800781 L 12.152344 21.800781 C 8.515625 21.855469 5.804688 20.667969 4.078125 18.289062 C 3.253906 17.152344 2.746094 15.785156 2.585938 14.34375 C 2.582031 14.3125 2.582031 14.28125 2.578125 14.25 C 2.558594 14.019531 2.542969 13.789062 2.539062 13.558594 C 2.535156 13.460938 2.539062 13.359375 2.539062 13.257812 C 2.542969 13.09375 2.546875 12.933594 2.558594 12.769531 C 2.566406 12.652344 2.574219 12.535156 2.585938 12.414062 C 2.613281 12.167969 2.640625 11.917969 2.6875 11.667969 C 3.125 9.296875 4.0625 7.601562 5.179688 6.386719 L 5.675781 6.882812 C 5.753906 6.960938 5.855469 7 5.957031 7 C 6.0625 7 6.164062 6.960938 6.242188 6.882812 C 6.398438 6.726562 6.398438 6.472656 6.242188 6.316406 L 5.75 5.824219 C 6.023438 5.578125 6.304688 5.355469 6.585938 5.152344 L 6.800781 5.578125 C 6.871094 5.71875 7.011719 5.800781 7.160156 5.800781 C 7.21875 5.800781 7.28125 5.785156 7.335938 5.757812 C 7.535156 5.660156 7.613281 5.417969 7.515625 5.222656 L 7.265625 4.71875 C 7.582031 4.53125 7.902344 4.371094 8.214844 4.230469 L 8.378906 4.726562 C 8.433594 4.894531 8.589844 5 8.757812 5 C 8.800781 5 8.84375 4.992188 8.882812 4.980469 C 9.09375 4.910156 9.207031 4.683594 9.136719 4.472656 L 8.960938 3.933594 C 9.417969 3.773438 9.851562 3.652344 10.25 3.566406 L 10.363281 4.265625 C 10.398438 4.460938 10.566406 4.597656 10.757812 4.597656 C 10.78125 4.597656 10.804688 4.597656 10.824219 4.59375 C 11.042969 4.558594 11.191406 4.351562 11.152344 4.132812 L 11.035156 3.421875 C 11.445312 3.363281 11.765625 3.34375 11.960938 3.335938 L 11.960938 4.199219 C 11.960938 4.421875 12.136719 4.601562 12.359375 4.601562 C 12.582031 4.601562 12.757812 4.421875 12.757812 4.199219 L 12.757812 3.363281 C 13.027344 3.386719 13.371094 3.429688 13.769531 3.507812 L 13.578125 4.074219 C 13.507812 4.28125 13.621094 4.507812 13.832031 4.578125 C 13.875 4.59375 13.917969 4.601562 13.957031 4.601562 C 14.125 4.601562 14.28125 4.492188 14.339844 4.328125 L 14.550781 3.683594 C 14.808594 3.753906 15.078125 3.839844 15.359375 3.9375 L 15.179688 4.472656 C 15.109375 4.683594 15.222656 4.910156 15.433594 4.980469 C 15.472656 4.992188 15.515625 5 15.558594 5 C 15.726562 5 15.882812 4.894531 15.9375 4.726562 L 16.101562 4.234375 C 16.3125 4.328125 16.523438 4.429688 16.738281 4.546875 L 16.398438 5.21875 C 16.300781 5.417969 16.382812 5.660156 16.578125 5.757812 C 16.636719 5.785156 16.699219 5.800781 16.757812 5.800781 C 16.90625 5.800781 17.046875 5.71875 17.117188 5.578125 L 17.429688 4.953125 C 18.835938 5.867188 20.195312 7.296875 21.039062 9.535156 L 21.035156 9.539062 L 21.109375 9.746094 C 21.210938 10.039062 21.300781 10.332031 21.382812 10.628906 C 21.394531 10.664062 21.402344 10.703125 21.414062 10.742188 C 21.492188 11.042969 21.5625 11.351562 21.621094 11.667969 C 21.671875 11.933594 21.707031 12.203125 21.730469 12.46875 C 21.734375 12.515625 21.742188 12.558594 21.746094 12.605469 C 21.917969 14.671875 21.386719 16.703125 20.234375 18.289062 Z M 22.699219 12.324219 C 22.644531 12.335938 22.585938 12.335938 22.523438 12.324219 C 22.523438 12.308594 22.519531 12.292969 22.519531 12.277344 C 22.492188 12.027344 22.457031 11.773438 22.410156 11.523438 C 22.355469 11.214844 22.285156 10.917969 22.214844 10.632812 C 22.207031 10.597656 22.195312 10.5625 22.1875 10.527344 C 22.113281 10.253906 22.035156 9.992188 21.953125 9.738281 C 21.949219 9.730469 21.949219 9.722656 21.945312 9.714844 C 21.984375 9.6875 22.027344 9.667969 22.070312 9.660156 C 22.222656 9.625 22.371094 9.6875 22.46875 9.746094 C 22.769531 9.933594 23.027344 10.339844 23.140625 10.8125 C 23.324219 11.597656 23.054688 12.238281 22.699219 12.324219 Z M 22.699219 12.324219"/>
    <path d="M 15.199219 6.203125 C 13.761719 6.203125 12.519531 7.054688 11.945312 8.277344 C 11.445312 7.511719 10.582031 7.003906 9.597656 7.003906 C 8.054688 7.003906 6.800781 8.261719 6.800781 9.804688 C 6.800781 11.347656 8.054688 12.605469 9.597656 12.605469 C 10.582031 12.605469 11.445312 12.097656 11.945312 11.332031 C 12.519531 12.554688 13.761719 13.40625 15.199219 13.40625 C 17.183594 13.40625 18.800781 11.789062 18.800781 9.804688 C 18.800781 7.820312 17.183594 6.203125 15.199219 6.203125 Z M 15.199219 7.003906 C 16.554688 7.003906 17.691406 7.976562 17.945312 9.257812 L 13.160156 7.890625 C 13.671875 7.347656 14.394531 7.003906 15.199219 7.003906 Z M 9.597656 7.804688 C 10.152344 7.804688 10.652344 8.03125 11.015625 8.390625 L 7.617188 9.628906 C 7.707031 8.609375 8.558594 7.804688 9.597656 7.804688 Z M 9.597656 11.804688 C 8.722656 11.804688 7.980469 11.230469 7.714844 10.441406 L 11.457031 9.082031 C 11.546875 9.304688 11.597656 9.550781 11.597656 9.804688 C 11.597656 10.90625 10.703125 11.804688 9.597656 11.804688 Z M 15.199219 12.605469 C 13.65625 12.605469 12.398438 11.347656 12.398438 9.804688 C 12.398438 9.351562 12.511719 8.925781 12.703125 8.546875 L 12.691406 8.589844 L 17.984375 10.101562 C 17.832031 11.507812 16.644531 12.605469 15.199219 12.605469 Z M 15.199219 12.605469"/>
    <path d="M10.398438 10.605469C10.398438 10.824219 10.21875 11.003906 10 11.003906 9.777344 11.003906 9.597656 10.824219 9.597656 10.605469 9.597656 10.382812 9.777344 10.203125 10 10.203125 10.21875 10.203125 10.398438 10.382812 10.398438 10.605469zM14.800781 10.804688C14.800781 11.136719 14.53125 11.40625 14.199219 11.40625 13.867188 11.40625 13.597656 11.136719 13.597656 10.804688 13.597656 10.472656 13.867188 10.203125 14.199219 10.203125 14.53125 10.203125 14.800781 10.472656 14.800781 10.804688zM12 14.203125C9.082031 14.203125 7.199219 15.773438 7.199219 18.203125 7.199219 18.652344 7.25 19.28125 7.695312 19.605469 8.203125 19.972656 8.910156 19.746094 9.730469 19.476562 10.410156 19.253906 11.179688 19.003906 12 19.003906 12.820312 19.003906 13.589844 19.253906 14.269531 19.476562 14.78125 19.644531 15.253906 19.796875 15.65625 19.796875 15.894531 19.796875 16.113281 19.742188 16.300781 19.605469 16.746094 19.28125 16.800781 18.652344 16.800781 18.203125 16.800781 15.773438 14.914062 14.203125 12 14.203125zM15.832031 18.960938C15.652344 19.085938 15.050781 18.890625 14.519531 18.71875 14.335938 18.65625 14.144531 18.59375 13.941406 18.535156 13.730469 17.65625 12.941406 17 12 17 11.054688 17 10.269531 17.65625 10.058594 18.535156 9.855469 18.59375 9.664062 18.65625 9.480469 18.71875 8.949219 18.890625 8.34375 19.085938 8.167969 18.960938 8.128906 18.929688 8 18.792969 8 18.203125 8 15.84375 10.066406 15.003906 12 15.003906 13.933594 15.003906 16 15.84375 16 18.203125 16 18.792969 15.871094 18.929688 15.832031 18.960938zM15.832031 18.960938"/>
</svg>

<svg xmlns="http://www.w3.org/2000/svg" width="32" height="32" viewBox="0 0 24 24">
    <path d="M23.918 10.625c-.16-.676-.547-1.262-1.031-1.559-.325-.199-.672-.265-1.004-.183a.916.916 0 0 0-.219.078c-.934-2.274-2.39-3.746-3.89-4.695l.542-1.086a.401.401 0 0 0-.175-.54.405.405 0 0 0-.54.18l-.519 1.043c-.25-.133-.492-.25-.734-.36l.39-1.179a.4.4 0 1 0-.758-.25l-.378 1.137a11.849 11.849 0 0 0-.805-.258l.344-1.027a.4.4 0 0 0-.254-.508.395.395 0 0 0-.504.254l-.363 1.09a12.012 12.012 0 0 0-1.262-.196v-.765a.398.398 0 1 0-.797 0v.738c-.211.012-.578.043-1.055.117l-.152-.922a.396.396 0 0 0-.461-.328.4.4 0 0 0-.328.461l.156.942c-.426.093-.902.226-1.402.406l-.38-1.14a.4.4 0 1 0-.76.253l.398 1.184c-.348.148-.7.324-1.051.527l-.61-1.219a.402.402 0 0 0-.535-.18.403.403 0 0 0-.18.54l.645 1.285c-.355.238-.7.512-1.039.816l-.965-.965a.4.4 0 0 0-.566.567l.957.957c-1.23 1.308-2.258 3.133-2.73 5.683-.008.032-.012.067-.016.098a1.21 1.21 0 0 0-.313-.047c-.883 0-1.574.953-1.574 2.172 0 1.215.691 2.168 1.574 2.168.164 0 .32-.039.473-.105a8.885 8.885 0 0 0 1.383 2.949c1.277 1.762 3.789 3.844 8.508 3.844.074 0 .144 0 .218-.004.074.004.149.004.219.004 4.719 0 7.23-2.082 8.508-3.844 1.152-1.586 1.738-3.578 1.691-5.63.016 0 .028.005.043.005.09 0 .18-.008.27-.031.855-.204 1.312-1.293 1.031-2.477zM1.871 14.996a.477.477 0 0 1-.297.117c-.367 0-.773-.562-.773-1.367 0-.809.406-1.371.773-1.371a.44.44 0 0 1 .203.055c-.02.215-.03.425-.039.64v.04c-.004.18-.004.355 0 .53.004.055.004.11.008.165.008.144.016.289.031.43l.012.171c.02.172.043.348.07.52l.012.07zm18.363 3.293c-1.726 2.379-4.437 3.563-8.074 3.512h-.008c-3.636.054-6.347-1.133-8.074-3.512-.824-1.137-1.332-2.504-1.492-3.945-.004-.031-.004-.063-.008-.094-.02-.23-.035-.46-.039-.691-.004-.098 0-.2 0-.301a10.2 10.2 0 0 1 .047-.844c.027-.246.055-.496.102-.746.437-2.371 1.374-4.066 2.492-5.281l.496.496a.399.399 0 0 0 .566 0 .4.4 0 0 0 0-.567l-.492-.492c.273-.246.555-.469.836-.672l.215.426a.4.4 0 0 0 .535.18c.2-.098.277-.34.18-.535l-.25-.504c.316-.188.636-.348.949-.489l.164.497a.397.397 0 0 0 .504.253.4.4 0 0 0 .254-.507l-.176-.54c.457-.16.89-.28 1.289-.367l.113.7a.401.401 0 0 0 .395.332c.023 0 .047 0 .066-.004a.396.396 0 0 0 .328-.461l-.117-.711c.41-.059.73-.078.926-.086v.863a.398.398 0 1 0 .797 0v-.836c.27.024.613.067 1.012.145l-.192.566a.398.398 0 0 0 .254.504.37.37 0 0 0 .125.024c.168 0 .324-.11.383-.274l.21-.644c.259.07.528.156.81.253l-.18.536a.4.4 0 0 0 .379.527.397.397 0 0 0 .379-.273l.164-.493c.21.094.421.196.636.313l-.34.672a.405.405 0 0 0 .36.582.4.4 0 0 0 .36-.223l.312-.625c1.406.914 2.765 2.344 3.61 4.582l-.005.004.074.207c.102.293.192.586.274.883.012.035.02.074.031.113.078.301.148.61.207.926.05.266.086.535.11.8.003.048.011.09.015.137.172 2.067-.36 4.098-1.512 5.684zm2.465-5.965a.443.443 0 0 1-.176 0c0-.015-.003-.031-.003-.047-.028-.25-.063-.504-.11-.754a13.663 13.663 0 0 0-.195-.89c-.008-.035-.02-.07-.027-.106a17.305 17.305 0 0 0-.235-.789c-.004-.008-.004-.015-.008-.023a.322.322 0 0 1 .125-.055c.153-.035.301.027.399.086.3.188.558.594.672 1.066.183.786-.086 1.426-.442 1.512zm0 0"/>
    <path d="M15.2 6.203a3.6 3.6 0 0 0-3.255 2.074 2.8 2.8 0 0 0-5.144 1.528 2.8 2.8 0 1 0 5.145 1.527 3.6 3.6 0 0 0 3.253 2.074 3.608 3.608 0 0 0 3.602-3.601 3.608 3.608 0 0 0-3.602-3.602zm0 .8c1.355 0 2.491.974 2.745 2.255L13.16 7.89a2.795 2.795 0 0 1 2.04-.887zm-5.602.802c.554 0 1.054.226 1.418.586L7.617 9.629a1.996 1.996 0 0 1 1.98-1.824zm0 4a1.994 1.994 0 0 1-1.883-1.364l3.742-1.359c.09.223.14.469.14.723 0 1.101-.894 2-2 2zm5.601.8a2.806 2.806 0 0 1-2.8-2.8c0-.453.113-.88.304-1.258l-.012.043 5.293 1.512a2.806 2.806 0 0 1-2.785 2.503zm0 0"/>
    <path d="M10.398 10.605a.4.4 0 1 1-.8-.003.4.4 0 0 1 .8.003zm0 0M14.8 10.805a.602.602 0 1 1-1.203 0 .602.602 0 0 1 1.204 0zm0 0M12 14.203c-2.918 0-4.8 1.57-4.8 4 0 .45.05 1.078.495 1.402.508.368 1.215.141 2.035-.128.68-.223 1.45-.473 2.27-.473.82 0 1.59.25 2.27.473.511.168.984.32 1.386.32.239 0 .457-.055.645-.192.445-.324.5-.953.5-1.402 0-2.43-1.887-4-4.801-4zm3.832 4.758c-.18.125-.781-.07-1.312-.242a12.726 12.726 0 0 0-.579-.184c-.21-.879-1-1.535-1.941-1.535-.945 0-1.73.656-1.941 1.535-.204.059-.395.121-.579.184-.53.172-1.136.367-1.312.242-.04-.031-.168-.168-.168-.758 0-2.36 2.066-3.2 4-3.2 1.934 0 4 .84 4 3.2 0 .59-.129.727-.168.758zm0 0"/>
</svg>
